austria/municipalities/62041.svg

<?xml version="1.0" encoding="UTF-8" standalone="no"?>
<!-- Created with Inkscape (http://www.inkscape.org/) -->

<svg
   xml:space="preserve"
   id="svg11947"
   version="1.1"
   viewBox="0 0 31.75 38.1"
   width="120"
   height="144"
   sodipodi:docname="AUT Knittelfeld COA.svg"
   inkscape:version="1.2 (dc2aeda, 2022-05-15)"
   xmlns:inkscape="http://www.inkscape.org/namespaces/inkscape"
   xmlns:sodipodi="http://sodipodi.sourceforge.net/DTD/sodipodi-0.dtd"
   xmlns="http://www.w3.org/2000/svg"
   xmlns:svg="http://www.w3.org/2000/svg"><sodipodi:namedview
     id="namedview198"
     pagecolor="#ffffff"
     bordercolor="#000000"
     borderopacity="0.25"
     inkscape:showpageshadow="2"
     inkscape:pageopacity="0.0"
     inkscape:pagecheckerboard="0"
     inkscape:deskcolor="#d1d1d1"
     inkscape:document-units="px"
     showgrid="false"
     inkscape:zoom="1.9991732"
     inkscape:cx="26.51096"
     inkscape:cy="30.262511"
     inkscape:window-width="1390"
     inkscape:window-height="1205"
     inkscape:window-x="2240"
     inkscape:window-y="25"
     inkscape:window-maximized="0"
     inkscape:current-layer="svg11947" /><defs
     id="defs11944"><linearGradient
       id="s_Salbe_Schwarz"
       inkscape:swatch="solid"><stop
         style="stop-color:#000000;stop-opacity:1;"
         offset="0"
         id="stop3747" /></linearGradient><linearGradient
       id="a_Argent_Silber"
       inkscape:swatch="solid"><stop
         style="stop-color:#ffffff;stop-opacity:1;"
         offset="0"
         id="stop3741" /></linearGradient><linearGradient
       id="A_Argent-dark_Silber-dunkel"
       inkscape:swatch="solid"><stop
         style="stop-color:#e7e7e7;stop-opacity:1;"
         offset="0"
         id="stop3735" /></linearGradient><linearGradient
       id="g_Gules_Rot"
       inkscape:swatch="solid"><stop
         style="stop-color:#da121a;stop-opacity:1;"
         offset="0"
         id="stop3729" /></linearGradient><linearGradient
       id="o_Or_Gold"
       inkscape:swatch="solid"><stop
         style="stop-color:#fcdd09;stop-opacity:1;"
         offset="0"
         id="stop3723" /></linearGradient><linearGradient
       id="b_Azure_Blau"
       inkscape:swatch="solid"><stop
         style="stop-color:#0f47af;stop-opacity:1;"
         offset="0"
         id="stop3717" /></linearGradient><linearGradient
       id="B_Bleu-celeste_Hellblau"
       inkscape:swatch="solid"><stop
         style="stop-color:#4d87ca;stop-opacity:1;"
         offset="0"
         id="stop3711" /></linearGradient><linearGradient
       id="B_Bleu-celeste-alt_Hellblau-alt"
       inkscape:swatch="solid"><stop
         style="stop-color:#89c5e3;stop-opacity:1;"
         offset="0"
         id="stop3705" /></linearGradient><linearGradient
       id="v_Vert_Gruen"
       inkscape:swatch="solid"><stop
         style="stop-color:#078930;stop-opacity:1;"
         offset="0"
         id="stop3699" /></linearGradient><linearGradient
       id="c_Carnation_Fleischfarbe"
       inkscape:swatch="solid"><stop
         style="stop-color:#f2a772;stop-opacity:1;"
         offset="0"
         id="stop3693" /></linearGradient><linearGradient
       id="p_Purpure_Purpur"
       inkscape:swatch="solid"><stop
         style="stop-color:#9116a1;stop-opacity:1;"
         offset="0"
         id="stop3687" /></linearGradient><linearGradient
       id="t_Tenne_Braun"
       inkscape:swatch="solid"><stop
         style="stop-color:#9d5333;stop-opacity:1;"
         offset="0"
         id="stop3681" /></linearGradient><linearGradient
       id="C_Cendre_Eisen"
       inkscape:swatch="solid"><stop
         style="stop-color:#999999;stop-opacity:1;"
         offset="0"
         id="stop3675" /></linearGradient><linearGradient
       id="Murray_Maulbeere"
       inkscape:swatch="solid"><stop
         style="stop-color:#630727;stop-opacity:1;"
         offset="0"
         id="stop3669" /></linearGradient><linearGradient
       id="Rose_Rosa"
       inkscape:swatch="solid"><stop
         style="stop-color:#e63d6a;stop-opacity:1;"
         offset="0"
         id="stop2937" /></linearGradient><linearGradient
       id="Orange_Orange"
       inkscape:swatch="solid"><stop
         style="stop-color:#ed5f00;stop-opacity:1;"
         offset="0"
         id="stop2931" /></linearGradient><linearGradient
       id="Buff_Leder"
       inkscape:swatch="solid"><stop
         style="stop-color:#ddc595;stop-opacity:1;"
         offset="0"
         id="stop2925" /></linearGradient><linearGradient
       id="Copper_Kupfer"
       inkscape:swatch="solid"><stop
         style="stop-color:#953d02;stop-opacity:1;"
         offset="0"
         id="stop1435" /></linearGradient></defs><g
     inkscape:groupmode="layer"
     id="layer1"
     inkscape:label="Wappen"><path
       d="M 2e-7,3.1e-6 V 22.225003 c 0,8.767498 7.107502,15.875 15.8749998,15.875 8.767498,0 15.875,-7.107502 15.875,-15.875 V 3.1e-6 Z"
       id="path11658"
       style="stroke-width:0.264583"
       inkscape:label="Schildrand"
       sodipodi:nodetypes="cssscc" /><path
       id="rect11660"
       style="fill:#da121a;fill-opacity:1;stroke-width:0.529167;stroke-dasharray:none"
       d="M 0.5291666,0.52916659 V 19.314584 22.225 c 0,8.474861 6.8709732,15.345833 15.3458334,15.345833 8.474861,0 15.345833,-6.870972 15.345833,-15.345833 V 19.314584 0.52916659 Z"
       inkscape:label="Schild"
       sodipodi:nodetypes="ccsssccc" /><path
       id="path1210"
       style="opacity:1;fill:#ffffff;stroke:#000000;stroke-width:0.264583;stroke-linecap:round;stroke-linejoin:round"
       d="M 22.498885 7.2414185 C 22.269339 7.2418914 21.998505 7.3248301 21.809005 7.4827474 C 21.489845 7.7487134 21.08235 8.0276805 21.773865 8.5643351 C 22.01458 8.7511445 22.241726 8.9341257 22.439457 9.1007365 L 18.703251 9.1007365 C 17.968199 8.5879742 17.546372 7.9840855 17.35863 7.819161 C 17.166511 7.6503902 16.596067 7.3581801 16.064136 7.5886841 C 15.532203 7.8191881 15.366367 8.0049462 15.916858 8.5291951 C 16.082852 8.6872762 16.291084 8.8971457 16.489433 9.1007365 L 12.597681 9.1007365 C 11.83287 8.5072951 11.327082 7.8689101 11.188464 7.6775675 C 10.993423 7.4083402 10.4437 7.2521493 10.000423 7.6067708 C 9.5571462 7.9613923 9.5926451 8.208554 10.05365 8.6547689 C 10.184357 8.7812822 10.343219 8.9394003 10.504268 9.1007365 L 4.3475382 9.1007365 C 4.3475382 9.1007365 3.7075647 9.6239619 3.7212199 9.9849202 C 3.7423229 10.542766 4.7898885 11.274764 4.7898885 11.274764 L 7.5659465 11.274764 C 7.1217432 11.540568 7.0700929 11.68424 7.0062907 11.780676 C 6.8956028 11.947979 7.0999253 12.379952 7.2595052 12.552722 C 7.4190848 12.725492 8.2627214 12.93544 8.6428833 12.409062 C 8.9202433 12.025024 9.64379 11.590814 10.342521 11.274764 L 13.38988 11.274764 C 13.132714 11.470271 12.880563 11.66265 12.817822 11.711947 C 12.675797 11.823538 12.381255 12.147908 12.908773 12.660209 C 13.436291 13.172512 13.801819 12.863422 14.080794 12.650391 C 14.282501 12.49636 15.025021 11.748234 16.011426 11.274764 L 19.332153 11.274764 C 19.00338 11.626818 18.682397 11.974646 18.640723 12.016321 C 18.559563 12.097481 18.630709 12.838615 18.757511 12.954765 C 18.884319 13.070914 19.7263 13.101928 19.883541 12.959932 C 19.993305 12.860791 20.854264 11.894354 21.652425 11.274764 L 28.113013 11.274764 L 27.523385 9.1007365 L 24.631055 9.1007365 C 23.856469 8.4250154 23.020411 7.5055956 22.873022 7.3582072 C 22.793787 7.2789714 22.655943 7.2410949 22.498885 7.2414185 z " /><path
       id="path1375"
       style="opacity:1;fill:#ffffff;stroke:#000000;stroke-width:0.264583;stroke-linecap:round;stroke-linejoin:round"
       d="m 22.058329,14.959557 c -0.214181,4.73e-4 -0.466887,0.08341 -0.643703,0.241329 -0.297798,0.265966 -0.678017,0.544933 -0.03279,1.081588 0.224603,0.186809 0.436545,0.36979 0.621041,0.536401 h -3.486126 c -0.685852,-0.512762 -1.079444,-1.116651 -1.25462,-1.281575 -0.17926,-0.168771 -0.711522,-0.460981 -1.207848,-0.230477 -0.496329,0.230504 -0.651065,0.416262 -0.13742,0.940511 0.154883,0.158081 0.349177,0.36795 0.53425,0.571541 h -3.631261 c -0.713619,-0.593441 -1.185553,-1.231826 -1.314892,-1.423169 -0.181986,-0.269227 -0.694914,-0.425418 -1.108521,-0.0708 -0.4136073,0.354621 -0.380483,0.601783 0.04967,1.047998 0.121959,0.126513 0.270187,0.284631 0.420457,0.445967 H 5.121927 c 0,0 -0.5971374,0.523226 -0.5843962,0.884184 0.019691,0.557846 0.9971381,1.289844 0.9971381,1.289844 h 2.5902449 c -0.4144709,0.265804 -0.462664,0.409476 -0.5221957,0.505912 -0.1032791,0.167303 0.087368,0.599276 0.2362658,0.772046 0.1488983,0.17277 0.9360668,0.382718 1.2907829,-0.14366 0.2587951,-0.384038 0.9339122,-0.818248 1.5858742,-1.134298 h 2.843387 c -0.239953,0.195507 -0.475226,0.387886 -0.533768,0.437183 -0.132519,0.111591 -0.407346,0.435961 0.08486,0.948262 0.492209,0.512303 0.833271,0.203213 1.093573,-0.0098 0.188206,-0.154031 0.881026,-0.902157 1.801407,-1.375627 h 3.098457 c -0.306767,0.352054 -0.606265,0.699882 -0.64515,0.741557 -0.07573,0.08116 -0.0093,0.822294 0.108971,0.938444 0.11832,0.116149 0.903944,0.147163 1.05066,0.0052 0.102417,-0.09914 0.905749,-1.065578 1.650485,-1.685168 h 6.028154 l -0.550161,-2.174028 h -2.698735 c -0.722739,-0.675721 -1.502837,-1.595141 -1.64036,-1.742529 -0.07394,-0.07924 -0.202549,-0.117112 -0.349095,-0.116789 z" /><path
       id="path1377"
       style="opacity:1;fill:#ffffff;stroke:#000000;stroke-width:0.264583;stroke-linecap:round;stroke-linejoin:round"
       d="m 21.473992,22.677738 c -0.203029,4.43e-4 -0.442578,0.07812 -0.610188,0.226023 -0.282293,0.249098 -0.642715,0.510372 -0.03108,1.01299 0.212909,0.17496 0.413816,0.346335 0.588706,0.50238 h -3.304616 c -0.650143,-0.480241 -1.023242,-1.045829 -1.189297,-1.200293 -0.169927,-0.158066 -0.674476,-0.431743 -1.14496,-0.215859 -0.470487,0.215885 -0.617166,0.389861 -0.130265,0.88086 0.146819,0.148055 0.330997,0.344613 0.506434,0.535292 h -3.442197 c -0.676466,-0.555803 -1.123827,-1.153699 -1.246433,-1.332907 -0.17251,-0.252151 -0.658732,-0.398436 -1.050804,-0.06631 -0.392072,0.33213 -0.360673,0.563615 0.04709,0.98153 0.115609,0.118489 0.256119,0.266578 0.398565,0.417682 H 5.948571 c 0,0 -0.5660468,0.49004 -0.553969,0.828104 0.018666,0.522465 0.945221,1.208037 0.945221,1.208037 h 1.926214 c -0.392891,0.248946 -0.4385748,0.383506 -0.4950069,0.473825 -0.097902,0.156692 0.082819,0.561268 0.2239643,0.72308 0.1411458,0.161812 0.8873294,0.358444 1.2235768,-0.134549 0.2453207,-0.359681 0.8852858,-0.766351 1.5033038,-1.062356 h 2.695342 c -0.22746,0.183108 -0.450483,0.363285 -0.505977,0.409456 -0.125619,0.104513 -0.386137,0.408309 0.08044,0.888119 0.466581,0.47981 0.789886,0.190324 1.036634,-0.0092 0.178407,-0.144262 0.835154,-0.844939 1.707616,-1.288379 h 2.937132 c -0.290795,0.329725 -0.574699,0.655492 -0.611559,0.694524 -0.07178,0.07602 -0.0088,0.770141 0.103297,0.878925 0.112159,0.108782 0.856879,0.137828 0.995956,0.0049 0.09708,-0.09285 0.85859,-0.997995 1.56455,-1.578287 h 5.714291 l -0.521516,-2.036141 h -2.558222 c -0.685109,-0.632864 -1.424591,-1.493971 -1.554953,-1.632011 -0.07008,-0.07421 -0.192003,-0.109684 -0.330919,-0.109381 z"
       sodipodi:nodetypes="cssccsssccsssccsccsssccssscccccccccscc" /></g></svg>

<svg xml:space="preserve" viewBox="0 0 31.75 38.1" width="120" height="144" xmlns="http://www.w3.org/2000/svg"><path d="M0 0v22.225C0 30.993 7.108 38.1 15.875 38.1S31.75 30.993 31.75 22.225V0z" style="stroke-width:.264583"/><path style="fill:#da121a;fill-opacity:1;stroke-width:.529167;stroke-dasharray:none" d="M.53.53v21.695c0 8.475 6.87 15.346 15.345 15.346 8.475 0 15.346-6.871 15.346-15.346V.529z"/><path style="opacity:1;fill:#fff;stroke:#000;stroke-width:.264583;stroke-linecap:round;stroke-linejoin:round" d="M22.499 7.241c-.23 0-.5.084-.69.242-.32.266-.727.545-.035 1.081.24.187.468.37.665.537h-3.736c-.735-.513-1.157-1.117-1.344-1.282-.192-.169-.763-.46-1.295-.23-.532.23-.698.416-.147.94.166.158.374.368.572.572h-3.891a7.677 7.677 0 0 1-1.41-1.423c-.195-.27-.744-.426-1.188-.071-.443.354-.407.602.054 1.048.13.126.29.284.45.446H4.348s-.64.523-.627.884c.021.558 1.069 1.29 1.069 1.29h2.776c-.444.266-.496.41-.56.506-.11.167.094.599.254.772.16.172 1.003.382 1.383-.144.277-.384 1-.818 1.7-1.134h3.047c-.257.195-.51.388-.572.437-.142.112-.437.436.09.948.528.513.894.203 1.173-.01.202-.154.944-.902 1.93-1.375h3.321c-.329.352-.65.7-.691.741-.081.081-.01.823.117.939.126.116.968.147 1.126.005.11-.1.97-1.066 1.768-1.685h6.461l-.59-2.174h-2.892c-.775-.676-1.61-1.595-1.758-1.743-.08-.079-.217-.117-.374-.117zM22.058 14.96a1.01 1.01 0 0 0-.643.24c-.298.267-.678.546-.033 1.082.224.187.436.37.62.537h-3.485c-.686-.513-1.08-1.117-1.255-1.282-.18-.168-.711-.46-1.208-.23-.496.23-.65.416-.137.94.155.158.349.368.534.572H12.82a7.467 7.467 0 0 1-1.315-1.423c-.182-.27-.695-.426-1.109-.071-.413.355-.38.602.05 1.048.122.126.27.285.42.446H5.123s-.597.523-.584.884c.02.558.997 1.29.997 1.29h2.59c-.415.266-.463.41-.522.506-.104.167.087.6.236.772.149.173.936.383 1.29-.144.26-.384.935-.818 1.587-1.134h2.843c-.24.195-.475.388-.534.437-.132.112-.407.436.085.948.492.513.833.204 1.094-.01.188-.153.88-.902 1.801-1.375h3.099c-.307.352-.607.7-.646.741-.075.082-.009.823.11.939.118.116.903.147 1.05.005.102-.099.906-1.065 1.65-1.685h6.029l-.55-2.174h-2.7c-.722-.676-1.502-1.595-1.64-1.743-.074-.079-.202-.117-.349-.116zM21.474 22.678a.965.965 0 0 0-.61.226c-.282.249-.643.51-.031 1.013.213.175.414.346.588.502h-3.304c-.65-.48-1.023-1.046-1.19-1.2-.17-.158-.674-.432-1.144-.216-.47.216-.618.39-.13.88.146.149.33.345.506.536h-3.442a7.024 7.024 0 0 1-1.247-1.333c-.172-.252-.659-.398-1.05-.066-.393.332-.361.564.046.981.116.119.257.267.399.418H5.949s-.566.49-.554.828c.018.523.945 1.208.945 1.208h1.926c-.393.25-.439.384-.495.474-.098.157.083.561.224.723.141.162.887.359 1.224-.134.245-.36.885-.767 1.503-1.063h2.695l-.506.41c-.125.104-.386.408.08.888.467.48.79.19 1.037-.01.179-.144.835-.844 1.708-1.288h2.937c-.29.33-.575.656-.611.695-.072.076-.01.77.103.879.112.108.857.138.996.005.097-.093.858-.998 1.564-1.579h5.715l-.522-2.036H23.36c-.685-.633-1.425-1.494-1.555-1.632-.07-.074-.192-.11-.331-.11z"/></svg>
